inst/assets/svg/wi-direction-right.svg

<?xml version="1.0" encoding="UTF-8"?>
<svg xmlns="http://www.w3.org/2000/svg" xmlns:xlink="http://www.w3.org/1999/xlink" width="30pt" height="30pt" viewBox="0 0 30 30" version="1.1">
<g id="surface201">
<path style=" stroke:none;fill-rule:nonzero;fill:rgb(0%,0%,0%);fill-opacity:1;" d="M 9.941406 14.359375 C 9.941406 14.578125 10.019531 14.78125 10.171875 14.929688 C 10.320313 15.078125 10.511719 15.148438 10.730469 15.128906 L 17.308594 15.128906 L 16.28125 16.210938 C 16.121094 16.371094 16.039063 16.558594 16.039063 16.761719 C 16.039063 16.980469 16.121094 17.179688 16.28125 17.328125 C 16.441406 17.488281 16.628906 17.558594 16.859375 17.558594 C 17.070313 17.550781 17.25 17.460938 17.390625 17.289063 L 19.839844 14.878906 C 20 14.71875 20.070313 14.53125 20.070313 14.300781 C 20.058594 14.058594 19.980469 13.871094 19.828125 13.71875 L 17.359375 11.328125 C 17.210938 11.171875 17.03125 11.089844 16.820313 11.101563 C 16.589844 11.101563 16.398438 11.171875 16.25 11.320313 C 16.089844 11.46875 16.019531 11.660156 16.019531 11.878906 C 16.019531 12.109375 16.101563 12.300781 16.25 12.449219 L 17.308594 13.53125 L 10.71875 13.53125 C 10.488281 13.539063 10.308594 13.621094 10.160156 13.78125 C 10.011719 13.949219 9.941406 14.140625 9.941406 14.359375 Z M 9.941406 14.359375 "/>
</g>
</svg>

<?xml version="1.0" encoding="utf-8"?>
<!-- Generator: Adobe Illustrator 22.0.1, SVG Export Plug-In . SVG Version: 6.00 Build 0)  -->
<svg version="1.1" id="Layer_1" xmlns="http://www.w3.org/2000/svg" xmlns:xlink="http://www.w3.org/1999/xlink" x="0px" y="0px"
	 viewBox="0 0 30 30" style="enable-background:new 0 0 30 30;" xml:space="preserve">
<path d="M9.94,14.36c0,0.22,0.08,0.42,0.23,0.57s0.34,0.22,0.56,0.2h6.58l-1.03,1.08c-0.16,0.16-0.24,0.35-0.24,0.55
	c0,0.22,0.08,0.42,0.24,0.57c0.16,0.16,0.35,0.23,0.58,0.23c0.21-0.01,0.39-0.1,0.53-0.27l2.45-2.41c0.16-0.16,0.23-0.35,0.23-0.58
	c-0.01-0.24-0.09-0.43-0.24-0.58l-2.47-2.39c-0.15-0.16-0.33-0.24-0.54-0.23c-0.23,0-0.42,0.07-0.57,0.22
	c-0.16,0.15-0.23,0.34-0.23,0.56c0,0.23,0.08,0.42,0.23,0.57l1.06,1.08h-6.59c-0.23,0.01-0.41,0.09-0.56,0.25
	C10.01,13.95,9.94,14.14,9.94,14.36z"/>
</svg>
